src/assets/_raw_images/002-electronics.svg

<svg viewBox="0 0 512 512" xmlns="http://www.w3.org/2000/svg"><g fill="#fff"><path d="m392 121h-272c-11 0-20 9-20 20v140c0 11 9 20 20 20h272c11 0 20-9 20-20v-140c0-11-9-20-20-20zm-20 140h-232v-100h232z"/><path d="m492 321h-20v-210c0-28-23-50-50-50h-332c-27 0-50 22-50 50v210h-20c-11 0-20 9-20 20v60c0 28 22 50 50 50h412c28 0 50-22 50-50v-60c0-11-9-20-20-20zm-412-210c0-6 5-10 10-10h332c5 0 10 4 10 10v210h-352zm392 290c0 6-4 10-10 10h-412c-6 0-10-4-10-10v-40h432z"/></g></svg>

<svg xmlns="http://www.w3.org/2000/svg" viewBox="0 0 512 512">
	<defs/>
	<path fill="#fff" d="M392 121H120c-11 0-20 9-20 20v140c0 11 9 20 20 20h272c11 0 20-9 20-20V141c0-11-9-20-20-20zm-20 140H140V161h232v100z"/>
	<path fill="#fff" d="M492 321h-20V111c0-28-23-50-50-50H90c-27 0-50 22-50 50v210H20c-11 0-20 9-20 20v60c0 28 22 50 50 50h412c28 0 50-22 50-50v-60c0-11-9-20-20-20zM80 111c0-6 5-10 10-10h332c5 0 10 4 10 10v210H80V111zm392 290c0 6-4 10-10 10H50c-6 0-10-4-10-10v-40h432v40z"/>
</svg>
